build/img/features/feature-4.svg

<svg width="94" height="94" viewBox="0 0 94 94" fill="none" xmlns="http://www.w3.org/2000/svg">
<g clip-path="url(#clip0)">
<path d="M50.8254 63.5851C50.8254 60.6634 48.4563 58.2964 45.5361 58.2964H36.165V47.6948C35.7045 47.3144 35.2811 46.8803 34.9436 46.3583L26.6511 33.4624L37.3926 43.821C38.236 44.6317 39.3374 45.0552 40.4532 45.0552C41.159 45.0552 41.8688 44.8863 42.5196 44.5405L59.0486 35.7693L60.2782 36.7867C60.6093 37.0592 61.0091 37.1915 61.4046 37.1915C61.9102 37.1915 62.4131 36.9747 62.761 36.5525C63.3845 35.8039 63.2774 34.6915 62.5309 34.0702L61.2906 33.0439C61.5947 31.9844 61.521 30.8135 60.9627 29.7633C59.8408 27.6456 57.2267 26.8363 55.0959 27.9087L52.1414 25.4624L51.0699 24.5756C50.3158 23.9574 49.2064 24.059 48.5868 24.8095C47.9783 25.5434 48.0774 26.6174 48.7798 27.246C48.7965 27.2597 48.8005 27.2787 48.8174 27.2926L51.7066 29.6859L41.2115 35.2545L32.7735 27.1152L36.1648 29.1268V29.0402C36.1648 25.4814 33.28 22.5955 29.7191 22.5955H23.7408C20.1797 22.5955 17.2949 25.4814 17.2949 29.0402V63.5703C17.2949 66.1392 19.123 68.2809 21.5471 68.7662C22.7351 69.0143 38.8595 68.8748 40.2462 68.8748V88.7105C40.2462 91.6322 42.6153 94 45.5361 94C48.4563 94 50.8254 91.6322 50.8254 88.7105V63.5851Z" fill="#5D5D5D"/>
<path d="M26.6208 20.6122C32.3124 20.6122 36.9277 15.999 36.9277 10.3067C36.9277 4.61321 32.3124 0 26.6208 0C20.9241 0 16.3128 4.61321 16.3128 10.3069C16.3128 15.9992 20.9243 20.6122 26.6208 20.6122Z" fill="#5D5D5D"/>
<path d="M86.6531 24.7102C85.4552 23.1759 83.2444 22.899 81.7015 24.1045L51.1491 47.9877C49.6171 49.1857 49.3446 51.4018 50.5443 52.936C51.2393 53.8265 52.2758 54.2914 53.3258 54.2914C54.0839 54.2914 54.8474 54.0465 55.4961 53.5422L64.7862 46.2798V91.5337C64.7862 92.896 65.8907 94.0002 67.2528 94.0002H76.7174C78.0795 94.0002 79.184 92.896 79.184 91.5337V35.0241L86.0466 29.6587C87.5807 28.4604 87.8513 26.2445 86.6531 24.7102Z" fill="#07BBF0"/>
<path d="M37.6021 75.2455C37.6021 73.2981 36.0258 71.7192 34.0753 71.7192H13.6516C13.6516 61.1261 13.6516 50.6992 13.6516 40.1289C13.6516 38.1815 12.0751 36.6027 10.1252 36.6027C8.1762 36.6027 6.59946 38.1813 6.59946 40.1289C6.59946 73.5323 6.59946 59.7694 6.59946 90.4731C6.59946 92.4205 8.1762 93.9999 10.1252 93.9999C12.0751 93.9999 13.6516 92.4207 13.6516 90.4731V78.7716H30.5498V90.4731C30.5498 92.4205 32.1267 93.9999 34.0753 93.9999C36.0258 93.9999 37.6021 92.4207 37.6021 90.4731V75.2455Z" fill="#5D5D5D"/>
</g>
<defs>
<clipPath id="clip0">
<rect width="94" height="94" fill="white"/>
</clipPath>
</defs>
</svg>

<svg width="94" height="94" fill="none" xmlns="http://www.w3.org/2000/svg"><g clip-path="url(#clip0)"><path d="M50.825 63.585a5.29 5.29 0 0 0-5.289-5.289h-9.371V47.695a5.899 5.899 0 0 1-1.221-1.337L26.65 33.462l10.742 10.359a4.412 4.412 0 0 0 5.127.72l16.529-8.772 1.23 1.018c.33.272.73.404 1.126.404a1.764 1.764 0 0 0 1.126-3.121l-1.24-1.026c.304-1.06.23-2.23-.328-3.28-1.122-2.118-3.736-2.928-5.867-1.855l-2.955-2.447-1.071-.886a1.766 1.766 0 0 0-2.483.233 1.76 1.76 0 0 0 .193 2.437c.017.014.02.033.037.047l2.89 2.393-10.495 5.569-8.439-8.14 3.392 2.012v-.087a6.445 6.445 0 0 0-6.446-6.444h-5.978a6.445 6.445 0 0 0-6.446 6.444v34.53a5.301 5.301 0 0 0 4.252 5.196c1.188.248 17.312.109 18.7.109V88.71a5.29 5.29 0 0 0 10.578 0V63.585zM26.62 20.612c5.692 0 10.308-4.613 10.308-10.305C36.928 4.613 32.312 0 26.62 0a10.304 10.304 0 0 0-10.308 10.307c0 5.692 4.611 10.305 10.308 10.305z" fill="#5D5D5D"/><path d="M86.653 24.71a3.522 3.522 0 0 0-4.952-.605L51.15 47.987a3.526 3.526 0 1 0 4.347 5.554l9.29-7.262v45.254A2.467 2.467 0 0 0 67.253 94h9.464a2.467 2.467 0 0 0 2.467-2.466v-56.51l6.863-5.365a3.526 3.526 0 0 0 .606-4.949z" fill="#07BBF0"/><path d="M37.602 75.246a3.525 3.525 0 0 0-3.527-3.527H13.652V40.13a3.525 3.525 0 0 0-3.527-3.526A3.525 3.525 0 0 0 6.6 40.129v50.344a3.525 3.525 0 1 0 7.053 0V78.772H30.55v11.701a3.525 3.525 0 1 0 7.052 0V75.246z" fill="#5D5D5D"/></g><defs><clipPath id="clip0"><path fill="#fff" d="M0 0h94v94H0z"/></clipPath></defs></svg>
